PortableApps/LibreOfficePortable/App/libreoffice/help/media/icon-themes/cmd/lc_acceptalltrackedchanges.svg

<svg viewBox="0 0 24 24" xmlns="http://www.w3.org/2000/svg"><path d="m5 3v18h5.242188l-1.6113286-1.576172c-.0003661-.000358.0003657-.001595 0-.001953-.1088404-.106423-.2053885-.219521-.2871094-.339844-.0003267-.000482.0003263-.001471 0-.001953-.0815776-.120286-.1505851-.246748-.2050781-.376953-.0002425-.000581.0002419-.001372 0-.001953-.0543599-.130178-.0957467-.264263-.1230469-.400391-.000127-.000636.0001264-.001317 0-.001953-.0542479-.273091-.0545035-.555074 0-.828125.0819053-.410252.2876235-.80272.6152344-1.123047.1037851-.101461.2135084-.18985.328125-.265625.712862-.479917 1.6126196-.494396 2.3398436-.050781l-2.6679686-2.609375c-.8736499-.854247-.8736289-2.220016 0-3.074219.8745685-.8549857 2.2074796-.8551954 3.0820316 0l1.884765 1.84375 5.121094-5.7265622-3.71875-3.4648438zm14 15.609375-1.882812 2.103516-.25586.287109h2.138672z" fill="#fff"/><path d="m5 2c-.554 0-1 .446-1 1v18c0 .554.446 1 1 1h6.267578l-.091797-.089844-.93164-.910156h-5.244141v-18h9v4c0 .554.446 1 1 1h2.345703l.087891-.0996094 1.833984-2.0507812-3.179687-3.1132813c-.709525-.7368575-.710169-.7363281-1.09375-.7363281h-.332032-.662109zm2.5 3c-.277 0-.5.223-.5.5s.223.5.5.5h4c.277 0 .5-.223.5-.5s-.223-.5-.5-.5zm0 4c-.277 0-.5.223-.5.5s.223.5.5.5h1.6054688c.2626169-.1493305.5439599-.239616.8320312-.2714844.0362734-.0693349.0625-.1445502.0625-.2285156 0-.277-.223-.5-.5-.5zm0 6c-.277 0-.5.223-.5.5s.223.5.5.5h1.6054688c.0149719-.00851.0317754-.011403.046875-.019531.093369-.048618.1876992-.091726.2851562-.125.0692173-.02544.1382909-.046376.2089844-.064453.0299582-.006769.0596873-.012173.0898437-.017578.3760429-.079127.7644229-.068049 1.1328129.058593.036023-.040076.063635-.08701.085937-.136719l-.710937-.695312zm12.5 2.492188-1 1.117187v2.390625h-2.138672l-.894531 1h3.033203c.554 0 1-.446 1-1z" fill="#808080"/><path d="m15 7h4l-4-4z" fill="#fff"/><path d="m12.5 9c-.277 0-.5.223-.5.5s.223.5.5.5h3.056641l.894531-1zm-5 3c-.277 0-.5.223-.5.5s.223.5.5.5h.8007812c-.1911689-.309322-.2934131-.652047-.3125-1zm-.025391 6c-.2629147 0-.474609.211694-.474609.474609v.05078c0 .262917.2116943.474611.4746094.474611h.8242187c-.00343-.0056-.00443-.01198-.00781-.01758-.086478-.142904-.1530696-.29282-.203125-.447266-.00503-.01563-.00902-.03116-.013672-.04687-.0466-.155947-.076081-.313869-.085938-.474609-.0002775-.0046-.00171-.0091-.00195-.01367z" fill="#d65532"/><path d="m22.007812 5.015625c-.112629-.02069-.229377-.0221369-.349609.0019531-.256226.05414-.492079.1962703-.658203.3945313l-7.353516 8.2265626-2.632812-2.576172c-.440541-.430791-1.2429709-.430757-1.6835939 0-.440564.430768-.440599 1.213717 0 1.644531l3.5117189 3.433594.916015.859375.804688-.929688 8.193359-9.1562495c.581205-.618654.04034-1.7536085-.748047-1.8984375zm0 6c-.112629-.02069-.229377-.022137-.349609.001953-.256226.05414-.492079.19627-.658203.394531l-7.353516 8.226563-2.632812-2.576172c-.440541-.430791-1.2429709-.430757-1.6835939 0-.440564.430768-.440599 1.213717 0 1.644531l3.5117189 3.433594.916015.859375.804688-.929688 8.193359-9.15625c.581205-.618653.04034-1.753608-.748047-1.898437z" fill="#4d82b8"/></svg>

<svg viewBox="0 0 24 24" xmlns="http://www.w3.org/2000/svg">
  <path
     d="M 5 3 L 5 21 L 10.242188 21 L 8.6308594 19.423828 C 8.6304933 19.42347 8.6312251 19.422233 8.6308594 19.421875 C 8.522019 19.315452 8.4254709 19.202354 8.34375 19.082031 C 8.3434233 19.081549 8.3440763 19.08056 8.34375 19.080078 C 8.2621724 18.959792 8.1931649 18.83333 8.1386719 18.703125 C 8.1384294 18.702544 8.1389138 18.701753 8.1386719 18.701172 C 8.084312 18.570994 8.0429252 18.436909 8.015625 18.300781 C 8.015498 18.300145 8.0157514 18.299464 8.015625 18.298828 C 7.9613771 18.025737 7.9611215 17.743754 8.015625 17.470703 C 8.0975303 17.060451 8.3032485 16.667983 8.6308594 16.347656 C 8.7346445 16.246195 8.8443678 16.157806 8.9589844 16.082031 C 9.6718464 15.602114 10.571604 15.587635 11.298828 16.03125 L 8.6308594 13.421875 C 7.7572095 12.567628 7.7572305 11.201859 8.6308594 10.347656 C 9.5054279 9.4926703 10.838339 9.4924606 11.712891 10.347656 L 13.597656 12.191406 L 18.71875 6.4648438 L 15 3 L 5 3 z M 19 18.609375 L 17.117188 20.712891 L 16.861328 21 L 19 21 L 19 18.609375 z "
     style="fill:#ffffff" />
  <path
     style="fill:#808080"
     d="M 5 2 C 4.446 2 4 2.446 4 3 L 4 21 C 4 21.554 4.446 22 5 22 L 11.267578 22 L 11.175781 21.910156 L 10.244141 21 L 5 21 L 5 3 L 14 3 L 14 7 C 14 7.554 14.446 8 15 8 L 17.345703 8 L 17.433594 7.9003906 L 19.267578 5.8496094 L 16.087891 2.7363281 C 15.378366 1.9994706 15.377722 2 14.994141 2 L 14.662109 2 L 14 2 L 5 2 z M 7.5 5 C 7.223 5 7 5.223 7 5.5 C 7 5.777 7.223 6 7.5 6 L 11.5 6 C 11.777 6 12 5.777 12 5.5 C 12 5.223 11.777 5 11.5 5 L 7.5 5 z M 7.5 9 C 7.223 9 7 9.223 7 9.5 C 7 9.777 7.223 10 7.5 10 L 9.1054688 10 C 9.3680857 9.8506695 9.6494287 9.760384 9.9375 9.7285156 C 9.9737734 9.6591807 10 9.5839654 10 9.5 C 10 9.223 9.777 9 9.5 9 L 7.5 9 z M 7.5 15 C 7.223 15 7 15.223 7 15.5 C 7 15.777 7.223 16 7.5 16 L 9.1054688 16 C 9.1204407 15.99149 9.1372442 15.988597 9.1523438 15.980469 C 9.2457128 15.931851 9.340043 15.888743 9.4375 15.855469 C 9.5067173 15.830029 9.5757909 15.809093 9.6464844 15.791016 C 9.6764426 15.784247 9.7061717 15.778843 9.7363281 15.773438 C 10.112371 15.694311 10.500751 15.705389 10.869141 15.832031 C 10.905164 15.791955 10.932776 15.745021 10.955078 15.695312 L 10.244141 15 L 7.5 15 z M 20 17.492188 L 19 18.609375 L 19 21 L 16.861328 21 L 15.966797 22 L 19 22 C 19.554 22 20 21.554 20 21 L 20 17.492188 z "
     />
  <path
     d="m15 7h4l-4-4z"
     fill="#fff"
     />
  <path
     style="fill:#d65532"
     d="M 12.5,9 C 12.223,9 12,9.223 12,9.5 12,9.777 12.223,10 12.5,10 h 3.056641 l 0.894531,-1 z m -5,3 C 7.223,12 7,12.223 7,12.5 7,12.777 7.223,13 7.5,13 h 0.8007812 c -0.1911689,-0.309322 -0.2934131,-0.652047 -0.3125,-1 z m -0.025391,6 C 7.2116943,18 7,18.211694 7,18.474609 v 0.05078 C 7,18.788306 7.2116943,19 7.4746094,19 h 0.8242187 c -0.00343,-0.0056 -0.00443,-0.01198 -0.00781,-0.01758 -0.086478,-0.142904 -0.1530696,-0.29282 -0.203125,-0.447266 -0.00503,-0.01563 -0.00902,-0.03116 -0.013672,-0.04687 -0.0466,-0.155947 -0.076081,-0.313869 -0.085938,-0.474609 -2.775e-4,-0.0046 -0.00171,-0.0091 -0.00195,-0.01367 z"
     />
  <path
     d="M 22.007812 5.015625 C 21.895183 4.994935 21.778435 4.9934881 21.658203 5.0175781 C 21.401977 5.0717181 21.166124 5.2138484 21 5.4121094 L 13.646484 13.638672 L 11.013672 11.0625 C 10.573131 10.631709 9.7707011 10.631743 9.3300781 11.0625 C 8.8895141 11.493268 8.8894791 12.276217 9.3300781 12.707031 L 12.841797 16.140625 L 13.757812 17 L 14.5625 16.070312 L 22.755859 6.9140625 C 23.337064 6.2954085 22.796199 5.160454 22.007812 5.015625 z M 22.007812 11.015625 C 21.895183 10.994935 21.778435 10.993488 21.658203 11.017578 C 21.401977 11.071718 21.166124 11.213848 21 11.412109 L 13.646484 19.638672 L 11.013672 17.0625 C 10.573131 16.631709 9.7707011 16.631743 9.3300781 17.0625 C 8.8895141 17.493268 8.8894791 18.276217 9.3300781 18.707031 L 12.841797 22.140625 L 13.757812 23 L 14.5625 22.070312 L 22.755859 12.914062 C 23.337064 12.295409 22.796199 11.160454 22.007812 11.015625 z "
     style="fill:#4d82b8" />
</svg>
